X: 32654
T: Plover's Wing, The
R: reel
M: 4/4
K: Dmajor
Ad d2 edef|a2 fa bafd|Ad d2 edef|afed B2 dB|
Ad d2 edef|a2 fa bafd|Ad d2 fdaf|1 edBc d2 dB:|2 edBc d4||
ae e2 aebe|ae e2 gdeg|ae e2 aebe|gdeg gdeg|
ae e2 aebe|ae e2 gdeg|agbg ageg|1 gdeg gdeg:|2 gdeg gedB||

